X:1
T:Story of the Wise Men
T:Arranged from Beethoven by H. M. B.
T:Story of the Wise Men
T:Public Domain
T:Public Domain
C:Arranged from Beethoven by H. M. B.
Z:Public Domain
%%score 1 2 ( 3 4 )
L:1/8
M:3/4
K:F
V:1 treble 
V:2 treble 
V:3 bass 
V:4 bass 
V:1
 A>B | c>=B c>B c>B | c4 d>A | B2 B2 c>G | A2 z2 F>G | A>^G A>G A>G | A4 B>^F | G2 G2 A>E | %8
w: 1.~Long a-|go the glor- ious Christ- mas|star Guid- ed|wise men from a-|far, To the|lit- tle town of Beth- le-|hem, To the|Sav- ior of all|
w: 2.~O- ver|hill, a- cross the de- sert|sand, Slow- ly|t’ward the Ho- ly|Land, With them|pre- cious lov- ing gifts they|bring, Ask- ing|for the new- born|
w: 3.~When they|saw the Child they all re-|joiced, Wor- shipped|Him with ten- der|voice, Bow- ing|low, pre- sent- ed gifts of|love To the|Christ- child from a-|
 F2 z4 |] x6 | x6 | x6 | x6 | x4 |] %14
w: men.||||||
w: King.||||||
w: bove.||||||
V:2
 [FA]>[GB] | [Ac]>[^G=B] [Ac]>[GB] [Ac]>[GB] | [Ac]4 [Bd]>[^FA] | [GB]2 [GB]2 [Ac]>[EG] | %4
 [FA]2 z2 [A,F]>[CG] | [CA]>[=B,^G] [CA]>[B,G] [CA]>[B,G] | [CA]4 [DB]>[A,^F] | %7
 [B,G]2 [B,G]2 [CA]>[G,E] | [A,F]2 z2 cf |] [cf]2 [Be]2 [Ag]2 | [Gg]4 [GB]2 | [CA]4 ([DB]>[A,^F]) | %12
 [B,G]4 ([CA]>[G,E]) | [A,F]2 z2 |] %14
V:3
 z2 | F,,2 A,,2 C,2 | F,2 F,,2 z2 | C,2 C,,2 z2 | F,,2 F,,,2 z2 | [F,,,F,,]2 [A,,,A,,]2 [C,,C,]2 | %6
 [F,,F,]2 [_E,,_E,]2 [D,,D,]2- | [D,,D,]2 [_D,,_D,]2 [C,,C,]2 | F,,2 F,2 z2 |] %9
 [A,C]2 [G,C]2 [F,C]2 | E,2 C,2 [E,C]2 | ([F,,F,]2 [_E,,_E,]2) [D,,D,]2- | %12
 [D,,D,]2 [_D,,_D,]2 [C,,C,]2 | (F,,2 F,2) |] %14
V:4
 x2 | x6 | x6 | x6 | x6 | x6 | x6 | x6 | x6 |] x6 | C4 x2 | x6 | x6 | x4 |] %14

